X:407
T: DAS LEBEN GLEICHET DER BLUMEN
N: F0747
O: Europa, Mitteleuropa, Deutschland
R: Geselligkeits -, Trink - Lied
M: 6/8
L: 1/16
K: A
A2 | c3Bc2A2B2c2 | d4B2B4
G2 | G2F2G2A2E2B2 | c4z6
A2 | e3fe2c3de2 | d3cd2B4
Ac | e3fe2c3de2 | d3cd2B4
d2 | c3BA2B3AG2 | A6
F6 | E2A2c2B3AG2 | A4z6

@@@ Tune index: 5838
